X:1
T:Miss Mackay
R:Reel
M:C|
L:1/8
K:Hp
N:From the North American Association of Lowland and Border Pipers
N:Journal No. 7. 
e | {g}A{d}A{g}c{d}A {g}eA{g}c{d}A | {g}Bf{g}fe {g}fB{G}Bf |\
{g}A{d}A{g}c{d}A {g}eA{g}c{d}A | {g}ef{g}AB {g}c{d}A{g}A :|
a | faea da{cd}c2 | {g}Bf{g}fe {g}fB{G}Ba |\
faea dac{d}A | {g}ce{g}AB {g}c{d}A{g}A :|
